X: 11
T: The Morning Dew
R: reel
M: 4/4
L: 1/8
K: Edor
|| B2 EB GBEB | B2 EB ADFA | B2 EB GBEB | BAdB ADFA |B2 EB GBEB | B2 EB ADFA | B2 EB GBEB | BAdB AFED |||: E3 B- BAFD | EDEB AFDF | E3 B- BAFA | BcdB AFDF :|B2 eB fBeB | B2 dB ADFA | B2 eB fBeB | dcdB ADFA |B2 eB fBeB | B2 dB ADFA | Bdeg fdec | dcdB ADFA ||B2 EB GBEB | B2 EB ADFA | B2 EB GBEB | BAdB ADFA |B2 EB GBEB | B2 EB ADFA | B2 EB GBEB | BAdB AFED |||: E3 B- BAFD | EDEB AFDF | E3 B- BAFA | BcdB AFDF :|B2 eB fBeB | B2 dB ADFA | B2 eB fBeB | dcdB ADFA |B2 eB fBeB | B2 dB ADFA | Bdeg fdec | dcdB ADFA |||: BAGF EFGA | B2 GB ADFA | BAGF EFGA | BcdB ADFA :||: E3 B- BAFD | EDEB BAFD | E3 B- BAFA | BcdB AFDF :|B2 eB fBeB | B2 eB AFDF | B2 eB fBeB | BcdB AFDF |B2 eB fBeB | B2 eB AFDF | Bdeg fdec | d2 dA BAFD |||: BAGF EFGA | B2 GB ADFA | BAGF EFGA | BcdB ADFA :||: E3 B- BAFD | EDEB BAFD | E3 B- BAFA | BcdB AFDF :|B2 eB fBeB | B2 eB AFDF | B2 eB fBeB | BcdB AFDF |B2 eB fBeB | B2 eB AFDF | Bdeg fdec | d2 dA BAFD |]


Tune 69	Setting 12530

